X: 781
T: Gece - Gündüz Hep Hayalin
C: İsmail Hakkı Bey
O: Turkey
F: http://compmusic.upf.edu/node/140
N: hicazkar--kocekce--aksak--gece_gunduz--muallim_ismail_hakki_bey
N: makam= hicazkar
N: form= kocekce
N: usul= aksak = 9/8
M: 9/8
L: 1/16
K: C _1/4B _7/8e _7/8A ^f
Q: 1/4=156
%%MIDI tuningsystem comma53
c'2_b=a aggf g2z2 g4 g2 | g4gf g=ag2 z2_b4ba  | 
w:  SAZ *  *  *  *  *  *  *  Ge ce   |  gün düz  *  *  *  *  hep  ha  | 
=a_bag gagf f4 g4 f2 | gf g_b=a2 g2f2 z2ag feed  | 
w:  yâ *  *  *  lin  *  *  *  *  göz le  |  rim  *  *  *  *  *  *  göz *  *  *  le  | 
d8 z4 g4 g2 | g4gf g=ag2 z2_b4ba  | =a_bag gagf f4 g4 f2 | 
w:  rim   Ge ce   |  gün düz  *  *  *  *  hep  ha  |  yâ *  *  *  lin  *  *  *  *  göz le  | 
gf g_b=a2 g2f2 z2ag feed  | d8 z4 g4 g=f | \
w:  rim  *  *  *  *  *  *  göz *  *  *  le  |  rim   Yü re  | 
=fe edcB cde2 z2e^f e2d2  | 
w:  ci *  *  *  ğim  *  *  *  *  ya *  *  kıp   | 
cBce d2c2 B4 c4 BA | Bc Bcd2 cBBA G2Bc BAAG  | 
w:  se *  *  *  *  *  ni  öz le  |  rim  *  *  *  *  *  *  *  *  *  öz *  *  *  le  | 
G8 z4 g4 g=f | =fe edcB cde2 z2e^f e2d2  | \
w:  rim   Yü re  |  ci *  *  *  ğim  *  *  *  *  ya *  *  kıp   | 
cBce d2c2 B4 c4 BA | 
w:  se *  *  *  *  *  ni  öz le  | 
Bc Bcd2 cBBA G2Bc BAAG  | G8 z4 _2/4e4 e2 | \
w:  rim  *  *  *  *  *  *  *  *  *  öz *  *  *  le  |  rim   Al ma   | 
_2/4e4=fe f=ag2 z2ga g2f2  | 
w:  â hım  *  *  *  *  yak *  *  ma   | 
_2/4e=fed d_7/8edc c2z2 f2_2/4e2 d2 | \
w:  câ *  *  *  nım  *  *  *  *  ey  *  pe  | 
c3Gc2 d2_2/4e2 =fg=e3ddc  | 
w:  rî  *  *  *  *  *  *  ey  *  pe  | 
c8 z4 _2/4e4 e2 | _2/4e4=fe f=ag2 z2ga g2f2  | \
w:  rî   Al ma   |  â hım  *  *  *  *  yak *  *  ma   | 
_2/4e=fed d_7/8edc c2z2 d4 e2 | 
w:  câ *  *  *  nım  *  *  *  *  ey  pe  | 
f3de2 f2g2 z2_bc' b=agf  | g8 z4 g4 g=f | \
w:  rî  *  *  *  *  ey  *  *  *  pe  |  rî   Bir  da  | 
=fe edcB cde2 z2e^f e2d2  | 
w:  ha  *  *  *  gel  *  *  *  *  din *  *  le   | 
cBce d2c2 B4 c4 BA | Bc Bcd2 cBBA G2Bc BAAG  | 
w:  be *  *  *  *  *  nim  söz le  |  rim  *  *  *  *  *  *  *  *  *  söz *  *  *  le  | 
G8 z4 g4 g=f | =fe edcB cde2 z2e^f e2d2  | \
w:  rim   Bir  da  |  ha  *  *  *  gel  *  *  *  *  din *  *  le   | 
cBce d2c2 B4 c4 BA | 
w:  be *  *  *  nim  *  *  söz le  | 
Bc Bcd2 cBBA G2Bc BAAG  | G2g2 f2g2 =a2f2 g4 z2 | 
w:  rim  *  *  *  *  *  *  *  *  *  söz *  *  *  le  |  rim   SAZ  | 
|


